X: 1
T: The Yankee Doodle Boy
P: piffero primo a0525a
O: Geo M Cohan
%R: march
F: http://ancients.sudburymuster.org/mus/ssp/pdf/clemC0.pdf
Z: 2020 John Chambers <jc:trillian.mit.edu>
M: 2/4
L: 1/16
K: D
z2 |\
f3e edcd | e4 B3e | e3f ecBA | d4- d3f | f2f2 ^defa | g2f2 e2z2 | fe2d Bd2f  | e4- ez2e |
f3e edcd | e4 B3e | e3f ecBA | d4- d3z | ddef  dfeA | ddef d2A2 | Be2B c>dec | d4- d2  :|


